X:58
T:BRDRWDO2- Onochie Oh  .. Irish Air
S:Corri's Collection
Q:1/4=120
L:1/4
M:3/4
K:Em
E3/4F/4|{F/}G2G|{G/A/}B2A|(BE)G3/4^D/4|{D/F/}E2z|G3|\
{G/B/}(A3/2 G/ A)|A/ B3/2 d|e2E3/4F/4|G2G3/4A/4|Gg2|\
d/ B3/2 d{e/}|.e2 e{f/g/}|d/ B3/2 G|{G/A/}B3/2 A/B|\
G/E 3/2 G3/4D/4|{D/F/}E2|]
